papirus/16x16/apps/skydrive.svg

<svg height="16" width="16" xmlns="http://www.w3.org/2000/svg"><g transform="translate(0 -1)"><path d="m6 4c-1.2944064 0-2.3966875.8068454-2.8710938 1.9488637-1.2049062.1823817-2.1289062 1.228118-2.1289062 2.505682 0 1.4058223 1.1192812 2.5454543 2.5 2.5454543h5.3125c1.208125 0 2.1875-.997182 2.1875-2.2272726 0-1.1432591-.84425-2.0800817-1.933594-2.2073865-.284106-1.4594363-1.5496246-2.5653409-3.066406-2.5653409z" fill="#a1bde8"/><path d="m10 7c-1.294406 0-2.396687.8068456-2.871094 1.948863-1.204906.182383-2.128906 1.228119-2.128906 2.505683 0 1.405822 1.1192814 2.545454 2.5 2.545454h5.3125c1.208125 0 2.1875-.997182 2.1875-2.227273 0-1.143259-.84425-2.080081-1.933594-2.207386-.284106-1.459437-1.549625-2.565341-3.066406-2.565341z" fill="#5481c5"/></g></svg>

<?xml version="1.0" encoding="UTF-8" standalone="no"?>
<!-- Created with Inkscape (http://www.inkscape.org/) -->

<svg
   xmlns:dc="http://purl.org/dc/elements/1.1/"
   xmlns:cc="http://creativecommons.org/ns#"
   xmlns:rdf="http://www.w3.org/1999/02/22-rdf-syntax-ns#"
   xmlns:svg="http://www.w3.org/2000/svg"
   xmlns="http://www.w3.org/2000/svg"
   xmlns:sodipodi="http://sodipodi.sourceforge.net/DTD/sodipodi-0.dtd"
   xmlns:inkscape="http://www.inkscape.org/namespaces/inkscape"
   id="svg2817"
   height="16"
   width="16"
   version="1.0"
   inkscape:version="0.91 r13725"
   sodipodi:docname="skydrive.svg">
  <defs
     id="defs14" />
  <sodipodi:namedview
     pagecolor="#ffffff"
     bordercolor="#666666"
     borderopacity="1"
     objecttolerance="10"
     gridtolerance="10"
     guidetolerance="10"
     inkscape:pageopacity="0"
     inkscape:pageshadow="2"
     inkscape:window-width="1600"
     inkscape:window-height="847"
     id="namedview12"
     showgrid="false"
     inkscape:zoom="9.28"
     inkscape:cx="-16.599138"
     inkscape:cy="20.079495"
     inkscape:window-x="0"
     inkscape:window-y="0"
     inkscape:window-maximized="1"
     inkscape:current-layer="svg2817" />
  <metadata
     id="metadata57">
    <rdf:RDF>
      <cc:Work
         rdf:about="">
        <dc:format>image/svg+xml</dc:format>
        <dc:type
           rdf:resource="http://purl.org/dc/dcmitype/StillImage" />
        <dc:title></dc:title>
      </cc:Work>
    </rdf:RDF>
  </metadata>
  <g
     id="g4137"
     transform="translate(0,-1)">
    <path
       id="path4173"
       d="M 6,4 C 4.7055936,4 3.6033125,4.8068454 3.1289062,5.9488637 1.924,6.1312454 1,7.1769817 1,8.4545457 1,9.860368 2.1192812,11 3.5,11 l 5.3125,0 C 10.020625,11 11,10.002818 11,8.7727274 11,7.6294683 10.15575,6.6926457 9.066406,6.5653409 8.7823,5.1059046 7.5167814,4 6,4 Z"
       inkscape:connector-curvature="0"
       style="fill:#a1bde8;fill-opacity:1" />
    <path
       style="fill:#5481c5;fill-opacity:1"
       inkscape:connector-curvature="0"
       d="M 10,7 C 8.705594,7 7.603313,7.8068456 7.128906,8.948863 5.924,9.131246 5,10.176982 5,11.454546 5,12.860368 6.1192814,14 7.5,14 l 5.3125,0 C 14.020625,14 15,13.002818 15,11.772727 15,10.629468 14.15575,9.692646 13.066406,9.565341 12.7823,8.105904 11.516781,7 10,7 Z"
       id="path5884-5" />
  </g>
</svg>
